X: 2615
T: Baltimore Salute, The
R: reel
M: 4/4
K: Dmajor
DEFA GEFE|DEFA defa|g2ed cAGE|FAGF EAGE|
D2FA GEFE|DEFA defa|g2ed cAGE|1 FAGE D3A:|2 FAGE D3c||
|:d2 (3fed adfa|bfaf gfed|cA~A2 BG~G2|AGFD EFGE|
defa g2fg|a2ge fdcA|ABce dcAG|1 (3FGA GE D3c:|2 (3FGA GE D3A||

